docs/images/icons/Behance.svg

<svg width="20.000000" height="20.000000" viewBox="0 0 20 20" fill="none" xmlns="http://www.w3.org/2000/svg" xmlns:xlink="http://www.w3.org/1999/xlink">

	<defs/>
	<path id="Vector" d="M6.20254 4.4585C6.73504 4.4585 7.22754 4.5 7.67754 4.62354C8.08588 4.69873 8.47567 4.85254 8.82504 5.07666C9.15337 5.28271 9.39921 5.57178 9.56254 5.94287C9.72671 6.31348 9.80837 6.76758 9.80837 7.26172C9.80837 7.83936 9.68587 8.3335 9.39921 8.7041C9.15337 9.07617 8.74337 9.40527 8.25171 9.65283C8.94838 9.85938 9.48087 10.23 9.80837 10.7241C10.1367 11.2192 10.3417 11.8379 10.3417 12.5386C10.3417 13.1162 10.2184 13.6104 10.0134 14.0225C9.80837 14.4351 9.48087 14.8062 9.11171 15.0537C8.7107 15.3188 8.26741 15.5137 7.80087 15.6304C7.30921 15.7544 6.81754 15.8369 6.32587 15.8369L0.833374 15.8369L0.833374 4.4585L6.20254 4.4585ZM5.87421 9.0752C6.32504 9.0752 6.69421 8.95166 6.98087 8.74609C7.26754 8.54004 7.39087 8.16846 7.39087 7.71533C7.39087 7.46777 7.34921 7.22021 7.26754 7.05615C7.18587 6.89111 7.06254 6.7666 6.89921 6.64355C6.73504 6.56104 6.57087 6.47852 6.36588 6.4375C6.16087 6.396 5.95671 6.396 5.71004 6.396L3.33337 6.396L3.33337 9.07617L5.87504 9.07617L5.87421 9.0752ZM5.99754 13.9399C6.24337 13.9399 6.48921 13.8984 6.69421 13.8574C6.90118 13.8184 7.09694 13.7339 7.26754 13.6104C7.43453 13.4897 7.57423 13.335 7.67754 13.1567C7.75921 12.9512 7.84171 12.7036 7.84171 12.415C7.84171 11.8379 7.67754 11.4253 7.35004 11.1367C7.02171 10.8892 6.57087 10.7661 6.03838 10.7661L3.33337 10.7661L3.33337 13.9409L5.99754 13.9409L5.99754 13.9399ZM13.9075 13.8984C14.235 14.2285 14.7267 14.3936 15.3825 14.3936C15.8334 14.3936 16.2434 14.27 16.5709 14.0645C16.8992 13.8169 17.1042 13.5693 17.1859 13.3218L19.1942 13.3218C18.8659 14.311 18.3742 15.0117 17.7192 15.4653C17.0625 15.8774 16.2842 16.125 15.3417 16.125C14.7387 16.127 14.1407 16.0151 13.5792 15.7949C13.074 15.6055 12.6234 15.2939 12.2675 14.8887C11.887 14.5088 11.6056 14.0415 11.4484 13.5278C11.2434 12.9917 11.1609 12.415 11.1609 11.7554C11.1609 11.1367 11.2434 10.5601 11.4484 10.0234C11.6455 9.50684 11.9371 9.03174 12.3084 8.62207C12.6775 8.25098 13.1284 7.92188 13.62 7.71533C14.1673 7.49512 14.7519 7.3833 15.3417 7.38525C16.0384 7.38525 16.6534 7.50928 17.1859 7.79785C17.7192 8.08594 18.1284 8.41602 18.4567 8.91113C18.7916 9.38623 19.0412 9.9165 19.1942 10.4775C19.2759 11.0542 19.3167 11.6318 19.2759 12.291L13.3334 12.291C13.3334 12.9512 13.5792 13.5693 13.9075 13.8994L13.9075 13.8984ZM16.4892 9.57031C16.2025 9.28174 15.7517 9.1167 15.2184 9.1167C14.85 9.1167 14.5625 9.19922 14.3167 9.32275C14.0709 9.44678 13.9075 9.61182 13.7434 9.77686C13.5925 9.93604 13.4927 10.1372 13.4567 10.3535C13.415 10.5601 13.3742 10.7241 13.3742 10.8892L17.0625 10.8892C16.9809 10.271 16.7759 9.85938 16.4892 9.57031ZM12.8825 5.2417L17.4725 5.2417L17.4725 6.35498L12.8834 6.35498L12.8834 5.2417L12.8825 5.2417Z" fill="#BDBDC0" fill-opacity="1.000000" fill-rule="nonzero"/>
</svg>

<svg width="20" height="20" fill="none" xmlns="http://www.w3.org/2000/svg"><path d="M6.203 4.458c.532 0 1.025.042 1.475.166.408.075.798.229 1.147.453.328.206.574.495.738.866.164.37.245.825.245 1.319 0 .577-.122 1.072-.409 1.442-.246.372-.656.701-1.147.949.696.206 1.229.577 1.556 1.071.329.495.534 1.114.534 1.815 0 .577-.124 1.071-.329 1.484a2.737 2.737 0 0 1-.901 1.03c-.401.266-.845.46-1.311.577a6.044 6.044 0 0 1-1.475.207H.833V4.459h5.37Zm-.329 4.617c.451 0 .82-.123 1.107-.329.287-.206.41-.578.41-1.03 0-.248-.042-.496-.123-.66a1.163 1.163 0 0 0-.369-.412 2.062 2.062 0 0 0-.533-.207c-.205-.041-.41-.041-.656-.041H3.333v2.68h2.542Zm.124 4.865c.245 0 .491-.042.696-.083a1.43 1.43 0 0 0 .574-.247 1.47 1.47 0 0 0 .41-.453 1.98 1.98 0 0 0 .164-.742c0-.577-.164-.99-.492-1.278-.328-.248-.78-.37-1.312-.37H3.333v3.174h2.665v-.001Zm7.91-.042c.327.33.819.496 1.475.496.45 0 .86-.124 1.188-.33.328-.247.533-.495.615-.742h2.008c-.328.989-.82 1.69-1.475 2.143-.657.412-1.435.66-2.377.66a4.784 4.784 0 0 1-1.763-.33 3.278 3.278 0 0 1-1.312-.906 3.28 3.28 0 0 1-.819-1.361c-.205-.536-.287-1.113-.287-1.773 0-.618.082-1.195.287-1.732.197-.516.49-.991.86-1.4.37-.372.82-.701 1.312-.908a4.571 4.571 0 0 1 1.722-.33c.696 0 1.311.124 1.844.413.533.288.942.618 1.27 1.113.336.475.585 1.005.738 1.566.082.577.123 1.155.082 1.814h-5.943c0 .66.246 1.278.575 1.608Zm2.581-4.328c-.287-.288-.737-.453-1.27-.453-.369 0-.656.082-.902.206-.246.124-.41.289-.574.454-.15.159-.25.36-.286.577-.042.206-.083.37-.083.535h3.688c-.081-.618-.286-1.03-.573-1.319Zm-3.607-4.328h4.59v1.113h-4.589V5.242Z" fill="#BDBDC0"/></svg>
